images/icons/stone.svg

<svg height="32pt" viewBox="0 0 32 32" width="32pt" xmlns="http://www.w3.org/2000/svg"><g fill="#fff"><path d="m30.128906 30.546875h-28.855468c-.234376 0-.421876-.1875-.421876-.417969v-28.855468c0-.234376.1875-.421876.421876-.421876h28.855468c.230469 0 .417969.1875.417969.421876v28.855468c0 .230469-.1875.417969-.417969.417969zm-28.429687-.84375h28.003906v-28.003906h-28.003906zm0 0"/><path d="m1.273438 9.335938c-.203126 0-.382813-.144532-.414063-.347657-.042969-.195312.066406-.394531.25-.472656l7.125-2.878906.683594-4.433594c.039062-.21875.25-.375.480469-.335937.222656.039062.378906.242187.359374.46875l-.722656 4.671874c-.019531.144532-.121094.269532-.257812.324219l-7.347656 2.96875c-.046876.023438-.101563.035157-.15625.035157zm0 0"/><path d="m7.636719 14.421875c-.089844 0-.175781-.027344-.25-.074219l-6.363281-4.667968c-.195313-.144532-.230469-.410157-.09375-.597657.140624-.191406.40625-.230469.589843-.089843l6.203125 4.546874 5.6875-1.570312.320313-2.417969-5.335938-3.25c-.195312-.121093-.261719-.378906-.140625-.582031s.382813-.261719.582032-.140625l5.5625 3.398437c.148437.085938.222656.25.203124.414063l-.390624 2.96875c-.023438.171875-.136719.308594-.3125.355469l-6.144532 1.695312c-.042968.011719-.078125.011719-.117187.011719zm0 0"/><path d="m4.242188 20.15625c-.117188 0-.226563-.046875-.308594-.140625l-2.972656-3.175781c-.109376-.109375-.144532-.273438-.101563-.417969.046875-.152344.164063-.261719.316406-.292969.148438-.035156.304688.011719.410157.128906l2.582031 2.769532 3.105469-5.242188c.117187-.199218.375-.261718.578124-.140625.195313.121094.261719.371094.152344.574219l-3.394531 5.730469c-.070313.117187-.1875.1875-.320313.199219-.019531.007812-.03125.007812-.046874.007812zm0 0"/><path d="m5.753906 30.546875c-.175781 0-.332031-.105469-.394531-.273437-.058594-.164063-.011719-.355469.125-.46875l4.3125-3.671876-.433594-3.957031-4.972656-1.933593-2.777344 3.773437c-.140625.183594-.402343.21875-.585937.078125-.191406-.136719-.230469-.394531-.097656-.585938l2.964843-4.023437c.121094-.15625.320313-.21875.5-.152344l5.519531 2.152344c.148438.054687.253907.1875.265626.34375l.484374 4.433594c.011719.140625-.039062.277343-.148437.371093l-4.484375 3.820313c-.078125.0625-.175781.09375-.277344.09375zm0 0"/><path d="m15.699219 30.546875c-.085938 0-.171875-.023437-.242188-.070313l-5.460937-3.820312c-.128906-.085938-.199219-.234375-.191406-.390625.011718-.148437.109374-.289063.253906-.351563.136718-.0625.300781-.046874.425781.046876l5.460937 3.816406c.148438.109375.214844.300781.160157.476562-.058594.171875-.21875.292969-.40625.292969zm0 0"/><path d="m9.761719 22.300781c-.183594 0-.339844-.109375-.402344-.28125-.058594-.167969-.003906-.355469.128906-.46875l4.253907-3.496093-.378907-5.722657c-.011719-.234375.160157-.433593.402344-.445312.230469-.023438.429687.160156.445313.386719l.394531 5.945312c.003906.132812-.050781.265625-.160157.351562l-4.417968 3.632813c-.074219.0625-.167969.097656-.265625.097656zm0 0"/><path d="m14.179688 9.761719c-.203126 0-.386719-.152344-.414063-.363281-.035156-.207032.089844-.40625.289063-.472657l3.652343-1.140625-2.125-6.382812c-.078125-.21875.046875-.453125.269531-.535156.222657-.070313.460938.046874.539063.273437l2.257813 6.78125c.035156.113281.027343.230469-.027344.332031-.050782.101563-.140625.175782-.25.214844l-4.0625 1.269531c-.042969.015625-.085938.023438-.128906.023438zm0 0"/><path d="m22.0625 19.515625c-.015625 0-.03125 0-.042969 0l-7.882812-.84375c-.238281-.03125-.402344-.242187-.375-.472656.007812-.113281.0625-.214844.148437-.285157.085938-.074218.199219-.105468.3125-.089843l7.449219.796875.378906-6.148438-4.109375-4.113281c-.097656-.09375-.140625-.238281-.117187-.378906.027343-.128907.117187-.246094.25-.304688l7.308593-3.253906-.765624-3.042969c-.050782-.230468.085937-.457031.3125-.515625.222656-.054687.453124.085938.515624.308594l.851563 3.390625c.039063.203125-.058594.410156-.246094.492188l-7.070312 3.144531 3.804687 3.804687c.082032.089844.132813.207032.125.328125l-.425781 6.785157c-.011719.230468-.195313.398437-.421875.398437zm0 0"/><path d="m30.128906 5.730469c-.019531 0-.042968 0-.0625-.003907l-4.246094-.640624c-.234374-.03125-.390624-.253907-.355468-.480469.03125-.238281.25-.398438.484375-.359375l4.234375.640625c.226562.027343.382812.226562.363281.449219-.011719.222656-.203125.394531-.417969.394531zm0 0"/><path d="m26.308594 13.578125c-.03125 0-.0625-.003906-.09375-.011719l-3.820313-.84375c-.148437-.035156-.269531-.144531-.316406-.289062-.046875-.148438-.007813-.304688.089844-.417969.105469-.113281.261719-.15625.410156-.125l3.566406.792969 3.652344-4.46875c.152344-.175782.414063-.199219.59375-.050782.183594.144532.207031.414063.0625.59375l-3.816406 4.664063c-.085938.101563-.199219.15625-.328125.15625zm0 0"/><path d="m30.128906 20.792969c-.160156 0-.300781-.089844-.378906-.226563l-3.824219-7.210937c-.097656-.210938-.027343-.46875.183594-.578125.207031-.109375.464844-.03125.574219.175781l3.8125 7.214844c.078125.128906.070312.289062-.007813.414062-.074219.128907-.214843.210938-.359375.210938zm0 0"/><path d="m12.878906 28.578125c-.199218 0-.375-.144531-.417968-.335937-.039063-.203126.066406-.402344.246093-.476563l6.066407-2.628906 2.902343-6.21875c.054688-.121094.152344-.195313.273438-.234375.125-.03125.25-.007813.351562.058594l8.058594 5.519531c.132813.078125.214844.226562.199219.382812-.011719.15625-.101563.292969-.242188.363281-.136718.0625-.304687.042969-.429687-.050781l-7.652344-5.230469-2.75 5.914063c-.050781.09375-.125.167969-.21875.210937l-6.21875 2.695313c-.050781.023437-.113281.03125-.167969.03125zm0 0"/><path d="m22.0625 30.546875h-.015625c-.140625 0-.261719-.078125-.34375-.1875l-2.96875-4.675781c-.125-.191406-.0625-.457032.125-.578125.199219-.132813.46875-.078125.59375.125l2.648437 4.160156 5.210938-6.734375c.140625-.191406.40625-.21875.589844-.078125.191406.148437.21875.40625.078125.59375l-5.582031 7.214844c-.082032.101562-.203126.160156-.335938.160156zm0 0"/></g></svg>

<?xml version="1.0" encoding="UTF-8"?>
<svg xmlns="http://www.w3.org/2000/svg" xmlns:xlink="http://www.w3.org/1999/xlink" width="32pt" height="32pt" viewBox="0 0 32 32" version="1.1">
<g id="surface1">
<path style=" stroke:none;fill-rule:nonzero;fill:rgb(100%,100%,100%);fill-opacity:1;" d="M 30.128906 30.546875 L 1.273438 30.546875 C 1.039062 30.546875 0.851562 30.359375 0.851562 30.128906 L 0.851562 1.273438 C 0.851562 1.039062 1.039062 0.851562 1.273438 0.851562 L 30.128906 0.851562 C 30.359375 0.851562 30.546875 1.039062 30.546875 1.273438 L 30.546875 30.128906 C 30.546875 30.359375 30.359375 30.546875 30.128906 30.546875 Z M 1.699219 29.703125 L 29.703125 29.703125 L 29.703125 1.699219 L 1.699219 1.699219 Z M 1.699219 29.703125 "/>
<path style=" stroke:none;fill-rule:nonzero;fill:rgb(100%,100%,100%);fill-opacity:1;" d="M 1.273438 9.335938 C 1.070312 9.335938 0.890625 9.191406 0.859375 8.988281 C 0.816406 8.792969 0.925781 8.59375 1.109375 8.515625 L 8.234375 5.636719 L 8.917969 1.203125 C 8.957031 0.984375 9.167969 0.828125 9.398438 0.867188 C 9.621094 0.90625 9.777344 1.109375 9.757812 1.335938 L 9.035156 6.007812 C 9.015625 6.152344 8.914062 6.277344 8.777344 6.332031 L 1.429688 9.300781 C 1.382812 9.324219 1.328125 9.335938 1.273438 9.335938 Z M 1.273438 9.335938 "/>
<path style=" stroke:none;fill-rule:nonzero;fill:rgb(100%,100%,100%);fill-opacity:1;" d="M 7.636719 14.421875 C 7.546875 14.421875 7.460938 14.394531 7.386719 14.347656 L 1.023438 9.679688 C 0.828125 9.535156 0.792969 9.269531 0.929688 9.082031 C 1.070312 8.890625 1.335938 8.851562 1.519531 8.992188 L 7.722656 13.539062 L 13.410156 11.96875 L 13.730469 9.550781 L 8.394531 6.300781 C 8.199219 6.179688 8.132812 5.921875 8.253906 5.71875 C 8.375 5.515625 8.636719 5.457031 8.835938 5.578125 L 14.398438 8.976562 C 14.546875 9.0625 14.621094 9.226562 14.601562 9.390625 L 14.210938 12.359375 C 14.1875 12.53125 14.074219 12.667969 13.898438 12.714844 L 7.753906 14.410156 C 7.710938 14.421875 7.675781 14.421875 7.636719 14.421875 Z M 7.636719 14.421875 "/>
<path style=" stroke:none;fill-rule:nonzero;fill:rgb(100%,100%,100%);fill-opacity:1;" d="M 4.242188 20.15625 C 4.125 20.15625 4.015625 20.109375 3.933594 20.015625 L 0.960938 16.839844 C 0.851562 16.730469 0.816406 16.566406 0.859375 16.421875 C 0.90625 16.269531 1.023438 16.160156 1.175781 16.128906 C 1.324219 16.09375 1.480469 16.140625 1.585938 16.257812 L 4.167969 19.027344 L 7.273438 13.785156 C 7.390625 13.585938 7.648438 13.523438 7.851562 13.644531 C 8.046875 13.765625 8.113281 14.015625 8.003906 14.21875 L 4.609375 19.949219 C 4.539062 20.066406 4.421875 20.136719 4.289062 20.148438 C 4.269531 20.15625 4.257812 20.15625 4.242188 20.15625 Z M 4.242188 20.15625 "/>
<path style=" stroke:none;fill-rule:nonzero;fill:rgb(100%,100%,100%);fill-opacity:1;" d="M 5.753906 30.546875 C 5.578125 30.546875 5.421875 30.441406 5.359375 30.273438 C 5.300781 30.109375 5.347656 29.917969 5.484375 29.804688 L 9.796875 26.132812 L 9.363281 22.175781 L 4.390625 20.242188 L 1.613281 24.015625 C 1.472656 24.199219 1.210938 24.234375 1.027344 24.09375 C 0.835938 23.957031 0.796875 23.699219 0.929688 23.507812 L 3.894531 19.484375 C 4.015625 19.328125 4.214844 19.265625 4.394531 19.332031 L 9.914062 21.484375 C 10.0625 21.539062 10.167969 21.671875 10.179688 21.828125 L 10.664062 26.261719 C 10.675781 26.402344 10.625 26.539062 10.515625 26.632812 L 6.03125 30.453125 C 5.953125 30.515625 5.855469 30.546875 5.753906 30.546875 Z M 5.753906 30.546875 "/>
<path style=" stroke:none;fill-rule:nonzero;fill:rgb(100%,100%,100%);fill-opacity:1;" d="M 15.699219 30.546875 C 15.613281 30.546875 15.527344 30.523438 15.457031 30.476562 L 9.996094 26.65625 C 9.867188 26.570312 9.796875 26.421875 9.804688 26.265625 C 9.816406 26.117188 9.914062 25.976562 10.058594 25.914062 C 10.195312 25.851562 10.359375 25.867188 10.484375 25.960938 L 15.945312 29.777344 C 16.09375 29.886719 16.160156 30.078125 16.105469 30.253906 C 16.046875 30.425781 15.886719 30.546875 15.699219 30.546875 Z M 15.699219 30.546875 "/>
<path style=" stroke:none;fill-rule:nonzero;fill:rgb(100%,100%,100%);fill-opacity:1;" d="M 9.761719 22.300781 C 9.578125 22.300781 9.421875 22.191406 9.359375 22.019531 C 9.300781 21.851562 9.355469 21.664062 9.488281 21.550781 L 13.742188 18.054688 L 13.363281 12.332031 C 13.351562 12.097656 13.523438 11.898438 13.765625 11.886719 C 13.996094 11.863281 14.195312 12.046875 14.210938 12.273438 L 14.605469 18.21875 C 14.609375 18.351562 14.554688 18.484375 14.445312 18.570312 L 10.027344 22.203125 C 9.953125 22.265625 9.859375 22.300781 9.761719 22.300781 Z M 9.761719 22.300781 "/>
<path style=" stroke:none;fill-rule:nonzero;fill:rgb(100%,100%,100%);fill-opacity:1;" d="M 14.179688 9.761719 C 13.976562 9.761719 13.792969 9.609375 13.765625 9.398438 C 13.730469 9.191406 13.855469 8.992188 14.054688 8.925781 L 17.707031 7.785156 L 15.582031 1.402344 C 15.503906 1.183594 15.628906 0.949219 15.851562 0.867188 C 16.074219 0.796875 16.3125 0.914062 16.390625 1.140625 L 18.648438 7.921875 C 18.683594 8.035156 18.675781 8.152344 18.621094 8.253906 C 18.570312 8.355469 18.480469 8.429688 18.371094 8.46875 L 14.308594 9.738281 C 14.265625 9.753906 14.222656 9.761719 14.179688 9.761719 Z M 14.179688 9.761719 "/>
<path style=" stroke:none;fill-rule:nonzero;fill:rgb(100%,100%,100%);fill-opacity:1;" d="M 22.0625 19.515625 C 22.046875 19.515625 22.03125 19.515625 22.019531 19.515625 L 14.136719 18.671875 C 13.898438 18.640625 13.734375 18.429688 13.761719 18.199219 C 13.769531 18.085938 13.824219 17.984375 13.910156 17.914062 C 13.996094 17.839844 14.109375 17.808594 14.222656 17.824219 L 21.671875 18.621094 L 22.050781 12.472656 L 17.941406 8.359375 C 17.84375 8.265625 17.800781 8.121094 17.824219 7.980469 C 17.851562 7.851562 17.941406 7.734375 18.074219 7.675781 L 25.382812 4.421875 L 24.617188 1.378906 C 24.566406 1.148438 24.703125 0.921875 24.929688 0.863281 C 25.152344 0.808594 25.382812 0.949219 25.445312 1.171875 L 26.296875 4.5625 C 26.335938 4.765625 26.238281 4.972656 26.050781 5.054688 L 18.980469 8.199219 L 22.785156 12.003906 C 22.867188 12.09375 22.917969 12.210938 22.910156 12.332031 L 22.484375 19.117188 C 22.472656 19.347656 22.289062 19.515625 22.0625 19.515625 Z M 22.0625 19.515625 "/>
<path style=" stroke:none;fill-rule:nonzero;fill:rgb(100%,100%,100%);fill-opacity:1;" d="M 30.128906 5.730469 C 30.109375 5.730469 30.085938 5.730469 30.066406 5.726562 L 25.820312 5.085938 C 25.585938 5.054688 25.429688 4.832031 25.464844 4.605469 C 25.496094 4.367188 25.714844 4.207031 25.949219 4.246094 L 30.183594 4.886719 C 30.410156 4.914062 30.566406 5.113281 30.546875 5.335938 C 30.535156 5.558594 30.34375 5.730469 30.128906 5.730469 Z M 30.128906 5.730469 "/>
<path style=" stroke:none;fill-rule:nonzero;fill:rgb(100%,100%,100%);fill-opacity:1;" d="M 26.308594 13.578125 C 26.277344 13.578125 26.246094 13.574219 26.214844 13.566406 L 22.394531 12.722656 C 22.246094 12.6875 22.125 12.578125 22.078125 12.433594 C 22.03125 12.285156 22.070312 12.128906 22.167969 12.015625 C 22.273438 11.902344 22.429688 11.859375 22.578125 11.890625 L 26.144531 12.683594 L 29.796875 8.214844 C 29.949219 8.039062 30.210938 8.015625 30.390625 8.164062 C 30.574219 8.308594 30.597656 8.578125 30.453125 8.757812 L 26.636719 13.421875 C 26.550781 13.523438 26.4375 13.578125 26.308594 13.578125 Z M 26.308594 13.578125 "/>
<path style=" stroke:none;fill-rule:nonzero;fill:rgb(100%,100%,100%);fill-opacity:1;" d="M 30.128906 20.792969 C 29.96875 20.792969 29.828125 20.703125 29.75 20.566406 L 25.925781 13.355469 C 25.828125 13.144531 25.898438 12.886719 26.109375 12.777344 C 26.316406 12.667969 26.574219 12.746094 26.683594 12.953125 L 30.496094 20.167969 C 30.574219 20.296875 30.566406 20.457031 30.488281 20.582031 C 30.414062 20.710938 30.273438 20.792969 30.128906 20.792969 Z M 30.128906 20.792969 "/>
<path style=" stroke:none;fill-rule:nonzero;fill:rgb(100%,100%,100%);fill-opacity:1;" d="M 12.878906 28.578125 C 12.679688 28.578125 12.503906 28.433594 12.460938 28.242188 C 12.421875 28.039062 12.527344 27.839844 12.707031 27.765625 L 18.773438 25.136719 L 21.675781 18.917969 C 21.730469 18.796875 21.828125 18.722656 21.949219 18.683594 C 22.074219 18.652344 22.199219 18.675781 22.300781 18.742188 L 30.359375 24.261719 C 30.492188 24.339844 30.574219 24.488281 30.558594 24.644531 C 30.546875 24.800781 30.457031 24.9375 30.316406 25.007812 C 30.179688 25.070312 30.011719 25.050781 29.886719 24.957031 L 22.234375 19.726562 L 19.484375 25.640625 C 19.433594 25.734375 19.359375 25.808594 19.265625 25.851562 L 13.046875 28.546875 C 12.996094 28.570312 12.933594 28.578125 12.878906 28.578125 Z M 12.878906 28.578125 "/>
<path style=" stroke:none;fill-rule:nonzero;fill:rgb(100%,100%,100%);fill-opacity:1;" d="M 22.0625 30.546875 L 22.046875 30.546875 C 21.90625 30.546875 21.785156 30.46875 21.703125 30.359375 L 18.734375 25.683594 C 18.609375 25.492188 18.671875 25.226562 18.859375 25.105469 C 19.058594 24.972656 19.328125 25.027344 19.453125 25.230469 L 22.101562 29.390625 L 27.3125 22.65625 C 27.453125 22.464844 27.71875 22.4375 27.902344 22.578125 C 28.09375 22.726562 28.121094 22.984375 27.980469 23.171875 L 22.398438 30.386719 C 22.316406 30.488281 22.195312 30.546875 22.0625 30.546875 Z M 22.0625 30.546875 "/>
</g>
</svg>
